X:474
T:B474-  'Twas When the Sheep Were Shearing
S:D'Urfey song, 1697
Q:1/4=120
L:1/4
M:6/4
K:G
B|G2EG2A|B3B2c|eBG(BA)G|A(D2D2)d|\
(BG)Gc2d|e3e2e|(=fe)d(AB)^c|(d3d2)|:d|\
A2dA2B|c3c2d|(eE)E(AB)c|(F3F2)A|\
B2Gc2A|d2Befd|(g3g2)=f|e=fgd2c|\
c3(e2d)|d3Bcd|ABcA2G|G(g2g2):|]
